X: 359
P: Longways for as many as will
M: 9/4
L: 1/4
K: F clef=bass middle=d
z |\
f3 f3 c3 | f3 f3 [g3e3] |\
f3 f3 B3 | c3 c3 f2 :|\
[K:F clef=treble]\
c |\
e |\
dcB AGF GAB | AGF DEF G2B |\

